X: 7202
T:Hamburg Sextur
R:Sextur
O:Denmark
M:4/4
K:D
A2 | \
d2f2a3b | a2f2d2f2 | gfef gfef | gfed c2A2 |\
d2f2a3b | a2f2d2f2 | gfed cABc | d2d2 d4 :|
K:A
|:a2c'a e2ae| c2ec A2c2| d2d2dc B2| c2c2 cBA2|\
  a2c'a e2ae| c2ec A2c2| dcBc defg| a2a2 a4 :|
K:D
|: f3ed2A2 | FAdf a3a | g2f2e2b2 | ba^ga f4 |\
   f2e2d2A2 | FAdf a4 | gfed cABc | d2d2 d4 :|
